X: 15295
T: Girls Of Banbridge, The
R: jig
M: 6/8
K: Gmajor
|:E|DGB d2e|dBG g2e|dBG DGB|cBc AGE|
DGB d2e|dBG gfg|dBG DGB|AGF G2:|
|:D|GBd g2g|agf efg|dBG DGB|cBc AGF|
GBd g2g|agf efg|dBG DGB|AGF G2:|

